images/50420038.svg

<?xml version="1.0" encoding="UTF-8"?>
<svg xmlns="http://www.w3.org/2000/svg" xmlns:xlink="http://www.w3.org/1999/xlink" width="300pt" height="300pt" viewBox="0 0 300 300" version="1.1">
<defs>
<g>
<symbol overflow="visible" id="glyph0-0">
<path style="stroke:none;" d="M 0.453125 1.59375 L 0.453125 -6.34375 L 4.953125 -6.34375 L 4.953125 1.59375 Z M 0.953125 1.09375 L 4.453125 1.09375 L 4.453125 -5.84375 L 0.953125 -5.84375 Z M 0.953125 1.09375 "/>
</symbol>
<symbol overflow="visible" id="glyph0-1">
<path style="stroke:none;" d="M 0.890625 -6.5625 L 4.65625 -6.5625 L 4.65625 -5.8125 L 1.765625 -5.8125 L 1.765625 -3.875 L 4.375 -3.875 L 4.375 -3.140625 L 1.765625 -3.140625 L 1.765625 0 L 0.890625 0 Z M 0.890625 -6.5625 "/>
</symbol>
<symbol overflow="visible" id="glyph0-2">
<path style="stroke:none;" d="M 0.890625 -6.5625 L 2.078125 -6.5625 L 4.984375 -1.078125 L 4.984375 -6.5625 L 5.84375 -6.5625 L 5.84375 0 L 4.65625 0 L 1.75 -5.484375 L 1.75 0 L 0.890625 0 Z M 0.890625 -6.5625 "/>
</symbol>
<symbol overflow="visible" id="glyph0-3">
<path style="stroke:none;" d="M 0.890625 -6.5625 L 1.765625 -6.5625 L 1.765625 -3.875 L 5 -3.875 L 5 -6.5625 L 5.890625 -6.5625 L 5.890625 0 L 5 0 L 5 -3.125 L 1.765625 -3.125 L 1.765625 0 L 0.890625 0 Z M 0.890625 -6.5625 "/>
</symbol>
</g>
</defs>
<g id="surface16137">
<rect x="0" y="0" width="300" height="300" style="fill:rgb(100%,100%,100%);fill-opacity:1;stroke:none;"/>
<path style="fill:none;stroke-width:1.2;stroke-linecap:butt;stroke-linejoin:miter;stroke:rgb(20%,80%,80%);stroke-opacity:1;stroke-miterlimit:10;" d="M 216.625 236.65625 L 207.222656 229.449219 "/>
<path style="fill:none;stroke-width:1.2;stroke-linecap:butt;stroke-linejoin:miter;stroke:rgb(0%,0%,0%);stroke-opacity:1;stroke-miterlimit:10;" d="M 207.222656 229.449219 L 197.820312 222.242188 "/>
<path style=" stroke:none;fill-rule:nonzero;fill:rgb(100%,100%,100%);fill-opacity:1;" d="M 213.625 231.15625 L 219.625 231.15625 L 219.625 242.15625 L 213.625 242.15625 Z M 213.625 231.15625 "/>
<g style="fill:rgb(20%,80%,80%);fill-opacity:1;">
  <use xlink:href="#glyph0-1" x="213.625" y="239.819336"/>
</g>
<path style="fill:none;stroke-width:1.2;stroke-linecap:butt;stroke-linejoin:miter;stroke:rgb(0%,0%,0%);stroke-opacity:1;stroke-miterlimit:10;" d="M 197.820312 222.242188 L 175.933594 231.320312 "/>
<path style="fill:none;stroke-width:1.2;stroke-linecap:butt;stroke-linejoin:miter;stroke:rgb(0%,0%,0%);stroke-opacity:1;stroke-miterlimit:10;" d="M 193.492188 218 L 175.984375 225.261719 "/>
<path style="fill:none;stroke-width:1.2;stroke-linecap:butt;stroke-linejoin:miter;stroke:rgb(0%,0%,0%);stroke-opacity:1;stroke-miterlimit:10;" d="M 200.898438 198.75 L 197.820312 222.242188 "/>
<path style="fill:none;stroke-width:1.2;stroke-linecap:butt;stroke-linejoin:miter;stroke:rgb(0%,0%,0%);stroke-opacity:1;stroke-miterlimit:10;" d="M 175.933594 231.320312 L 157.125 216.90625 "/>
<path style="fill:none;stroke-width:1.2;stroke-linecap:butt;stroke-linejoin:miter;stroke:rgb(0%,0%,0%);stroke-opacity:1;stroke-miterlimit:10;" d="M 157.125 216.90625 L 160.207031 193.410156 "/>
<path style="fill:none;stroke-width:1.2;stroke-linecap:butt;stroke-linejoin:miter;stroke:rgb(0%,0%,0%);stroke-opacity:1;stroke-miterlimit:10;" d="M 162.960938 215.28125 L 165.429688 196.484375 "/>
<path style="fill:none;stroke-width:1.2;stroke-linecap:butt;stroke-linejoin:miter;stroke:rgb(0%,0%,0%);stroke-opacity:1;stroke-miterlimit:10;" d="M 160.207031 193.410156 L 182.09375 184.332031 "/>
<path style="fill:none;stroke-width:1.2;stroke-linecap:butt;stroke-linejoin:miter;stroke:rgb(0%,0%,0%);stroke-opacity:1;stroke-miterlimit:10;" d="M 160.207031 193.410156 L 141.402344 178.996094 "/>
<path style="fill:none;stroke-width:1.2;stroke-linecap:butt;stroke-linejoin:miter;stroke:rgb(0%,0%,0%);stroke-opacity:1;stroke-miterlimit:10;" d="M 182.09375 184.332031 L 200.898438 198.75 "/>
<path style="fill:none;stroke-width:1.2;stroke-linecap:butt;stroke-linejoin:miter;stroke:rgb(0%,0%,0%);stroke-opacity:1;stroke-miterlimit:10;" d="M 180.582031 190.199219 L 195.628906 201.730469 "/>
<path style="fill:none;stroke-width:1.2;stroke-linecap:butt;stroke-linejoin:miter;stroke:rgb(0%,0%,0%);stroke-opacity:1;stroke-miterlimit:10;" d="M 141.402344 178.996094 L 130.042969 182.367188 "/>
<path style="fill:none;stroke-width:1.2;stroke-linecap:butt;stroke-linejoin:miter;stroke:rgb(0%,0%,100%);stroke-opacity:1;stroke-miterlimit:10;" d="M 130.042969 182.367188 L 118.6875 185.734375 "/>
<path style="fill:none;stroke-width:1.2;stroke-linecap:butt;stroke-linejoin:miter;stroke:rgb(0%,0%,0%);stroke-opacity:1;stroke-miterlimit:10;" d="M 142.011719 155.308594 L 141.402344 178.996094 "/>
<path style="fill:none;stroke-width:1.2;stroke-linecap:butt;stroke-linejoin:miter;stroke:rgb(0%,0%,0%);stroke-opacity:1;stroke-miterlimit:10;" d="M 136.378906 157.535156 L 135.890625 176.484375 "/>
<path style="fill:none;stroke-width:1.2;stroke-linecap:butt;stroke-linejoin:miter;stroke:rgb(0%,0%,100%);stroke-opacity:1;stroke-miterlimit:10;" d="M 118.6875 185.734375 L 111.972656 175.976562 "/>
<path style="fill:none;stroke-width:1.2;stroke-linecap:butt;stroke-linejoin:miter;stroke:rgb(0%,0%,0%);stroke-opacity:1;stroke-miterlimit:10;" d="M 111.972656 175.976562 L 105.257812 166.214844 "/>
<path style=" stroke:none;fill-rule:nonzero;fill:rgb(100%,100%,100%);fill-opacity:1;" d="M 111.6875 180.234375 L 125.6875 180.234375 L 125.6875 191.234375 L 111.6875 191.234375 Z M 111.6875 180.234375 "/>
<g style="fill:rgb(0%,0%,100%);fill-opacity:1;">
  <use xlink:href="#glyph0-2" x="111.6875" y="188.897461"/>
  <use xlink:href="#glyph0-3" x="118.665039" y="188.897461"/>
</g>
<path style="fill:none;stroke-width:1.2;stroke-linecap:butt;stroke-linejoin:miter;stroke:rgb(0%,0%,0%);stroke-opacity:1;stroke-miterlimit:10;" d="M 105.257812 166.214844 L 112.464844 156.8125 "/>
<path style="fill:none;stroke-width:1.2;stroke-linecap:butt;stroke-linejoin:miter;stroke:rgb(0%,0%,100%);stroke-opacity:1;stroke-miterlimit:10;" d="M 112.464844 156.8125 L 119.671875 147.410156 "/>
<path style="fill:none;stroke-width:1.2;stroke-linecap:butt;stroke-linejoin:miter;stroke:rgb(0%,0%,0%);stroke-opacity:1;stroke-miterlimit:10;" d="M 111.121094 167.726562 L 116.890625 160.203125 "/>
<path style="fill:none;stroke-width:1.2;stroke-linecap:butt;stroke-linejoin:miter;stroke:rgb(0%,0%,100%);stroke-opacity:1;stroke-miterlimit:10;" d="M 116.890625 160.203125 L 122.65625 152.683594 "/>
<path style="fill:none;stroke-width:1.2;stroke-linecap:butt;stroke-linejoin:miter;stroke:rgb(0%,0%,0%);stroke-opacity:1;stroke-miterlimit:10;" d="M 105.257812 166.214844 L 81.570312 165.605469 "/>
<path style="fill:none;stroke-width:1.2;stroke-linecap:butt;stroke-linejoin:miter;stroke:rgb(0%,0%,100%);stroke-opacity:1;stroke-miterlimit:10;" d="M 119.671875 147.410156 L 130.84375 151.359375 "/>
<path style="fill:none;stroke-width:1.2;stroke-linecap:butt;stroke-linejoin:miter;stroke:rgb(0%,0%,0%);stroke-opacity:1;stroke-miterlimit:10;" d="M 130.84375 151.359375 L 142.011719 155.308594 "/>
<path style=" stroke:none;fill-rule:nonzero;fill:rgb(100%,100%,100%);fill-opacity:1;" d="M 116.671875 141.910156 L 123.671875 141.910156 L 123.671875 152.910156 L 116.671875 152.910156 Z M 116.671875 141.910156 "/>
<g style="fill:rgb(0%,0%,100%);fill-opacity:1;">
  <use xlink:href="#glyph0-2" x="116.671875" y="150.573242"/>
</g>
<path style="fill:none;stroke-width:1.2;stroke-linecap:butt;stroke-linejoin:miter;stroke:rgb(0%,0%,0%);stroke-opacity:1;stroke-miterlimit:10;" d="M 142.011719 155.308594 L 161.53125 141.878906 "/>
<path style="fill:none;stroke-width:1.2;stroke-linecap:butt;stroke-linejoin:miter;stroke:rgb(0%,0%,0%);stroke-opacity:1;stroke-miterlimit:10;" d="M 161.53125 141.878906 L 172.230469 146.972656 "/>
<path style="fill:none;stroke-width:1.2;stroke-linecap:butt;stroke-linejoin:miter;stroke:rgb(0%,0%,100%);stroke-opacity:1;stroke-miterlimit:10;" d="M 172.230469 146.972656 L 182.925781 152.070312 "/>
<path style="fill:none;stroke-width:1.2;stroke-linecap:butt;stroke-linejoin:miter;stroke:rgb(0%,0%,0%);stroke-opacity:1;stroke-miterlimit:10;" d="M 166.070312 137.863281 L 174.625 141.941406 "/>
<path style="fill:none;stroke-width:1.2;stroke-linecap:butt;stroke-linejoin:miter;stroke:rgb(0%,0%,100%);stroke-opacity:1;stroke-miterlimit:10;" d="M 174.625 141.941406 L 183.183594 146.015625 "/>
<path style="fill:none;stroke-width:1.2;stroke-linecap:butt;stroke-linejoin:miter;stroke:rgb(0%,0%,0%);stroke-opacity:1;stroke-miterlimit:10;" d="M 159.664062 118.257812 L 161.53125 141.878906 "/>
<path style="fill:none;stroke-width:1.2;stroke-linecap:butt;stroke-linejoin:miter;stroke:rgb(0%,0%,100%);stroke-opacity:1;stroke-miterlimit:10;" d="M 182.925781 152.070312 L 192.683594 145.355469 "/>
<path style="fill:none;stroke-width:1.2;stroke-linecap:butt;stroke-linejoin:miter;stroke:rgb(0%,0%,0%);stroke-opacity:1;stroke-miterlimit:10;" d="M 192.683594 145.355469 L 202.445312 138.636719 "/>
<path style=" stroke:none;fill-rule:nonzero;fill:rgb(100%,100%,100%);fill-opacity:1;" d="M 179.925781 146.570312 L 186.925781 146.570312 L 186.925781 157.570312 L 179.925781 157.570312 Z M 179.925781 146.570312 "/>
<g style="fill:rgb(0%,0%,100%);fill-opacity:1;">
  <use xlink:href="#glyph0-2" x="179.925781" y="155.233398"/>
</g>
<path style="fill:none;stroke-width:1.2;stroke-linecap:butt;stroke-linejoin:miter;stroke:rgb(0%,0%,0%);stroke-opacity:1;stroke-miterlimit:10;" d="M 202.445312 138.636719 L 201.511719 126.828125 "/>
<path style="fill:none;stroke-width:1.2;stroke-linecap:butt;stroke-linejoin:miter;stroke:rgb(0%,0%,100%);stroke-opacity:1;stroke-miterlimit:10;" d="M 201.511719 126.828125 L 200.574219 115.015625 "/>
<path style="fill:none;stroke-width:1.2;stroke-linecap:butt;stroke-linejoin:miter;stroke:rgb(0%,0%,0%);stroke-opacity:1;stroke-miterlimit:10;" d="M 196.699219 136.714844 L 195.953125 127.269531 "/>
<path style="fill:none;stroke-width:1.2;stroke-linecap:butt;stroke-linejoin:miter;stroke:rgb(0%,0%,100%);stroke-opacity:1;stroke-miterlimit:10;" d="M 195.953125 127.269531 L 195.203125 117.820312 "/>
<path style="fill:none;stroke-width:1.2;stroke-linecap:butt;stroke-linejoin:miter;stroke:rgb(0%,0%,0%);stroke-opacity:1;stroke-miterlimit:10;" d="M 202.445312 138.636719 L 213.140625 143.734375 "/>
<path style="fill:none;stroke-width:1.2;stroke-linecap:butt;stroke-linejoin:miter;stroke:rgb(0%,0%,100%);stroke-opacity:1;stroke-miterlimit:10;" d="M 213.140625 143.734375 L 223.835938 148.828125 "/>
<path style="fill:none;stroke-width:1.2;stroke-linecap:butt;stroke-linejoin:miter;stroke:rgb(0%,0%,100%);stroke-opacity:1;stroke-miterlimit:10;" d="M 200.574219 115.015625 L 189.878906 109.921875 "/>
<path style="fill:none;stroke-width:1.2;stroke-linecap:butt;stroke-linejoin:miter;stroke:rgb(0%,0%,0%);stroke-opacity:1;stroke-miterlimit:10;" d="M 189.878906 109.921875 L 179.183594 104.828125 "/>
<path style=" stroke:none;fill-rule:nonzero;fill:rgb(100%,100%,100%);fill-opacity:1;" d="M 197.574219 109.515625 L 204.574219 109.515625 L 204.574219 120.515625 L 197.574219 120.515625 Z M 197.574219 109.515625 "/>
<g style="fill:rgb(0%,0%,100%);fill-opacity:1;">
  <use xlink:href="#glyph0-2" x="197.574219" y="118.178711"/>
</g>
<path style="fill:none;stroke-width:1.2;stroke-linecap:butt;stroke-linejoin:miter;stroke:rgb(0%,0%,0%);stroke-opacity:1;stroke-miterlimit:10;" d="M 179.183594 104.828125 L 159.664062 118.257812 "/>
<path style="fill:none;stroke-width:1.2;stroke-linecap:butt;stroke-linejoin:miter;stroke:rgb(0%,0%,0%);stroke-opacity:1;stroke-miterlimit:10;" d="M 180.390625 110.761719 L 164.773438 121.507812 "/>
<path style="fill:none;stroke-width:1;stroke-linecap:butt;stroke-linejoin:miter;stroke:rgb(0%,0%,0%);stroke-opacity:1;stroke-miterlimit:10;" d="M 243.359375 135.398438 L 243.359375 135.398438 M 240.628906 136.644531 L 241.21875 137.503906 M 237.898438 137.890625 L 239.082031 139.605469 M 235.171875 139.132812 L 236.941406 141.710938 M 232.441406 140.378906 L 234.804688 143.816406 M 229.710938 141.625 L 232.667969 145.917969 M 226.980469 142.867188 L 230.527344 148.023438 M 224.253906 144.113281 L 228.390625 150.128906 M 221.523438 145.359375 L 226.25 152.230469 M 221.46875 145.382812 L 226.207031 152.273438 "/>
<path style=" stroke:none;fill-rule:nonzero;fill:rgb(100%,100%,100%);fill-opacity:1;" d="M 216.835938 143.328125 L 230.835938 143.328125 L 230.835938 154.328125 L 216.835938 154.328125 Z M 216.835938 143.328125 "/>
<g style="fill:rgb(0%,0%,100%);fill-opacity:1;">
  <use xlink:href="#glyph0-2" x="216.835938" y="151.991211"/>
  <use xlink:href="#glyph0-3" x="223.813477" y="151.991211"/>
</g>
<path style="fill:none;stroke-width:1.2;stroke-linecap:butt;stroke-linejoin:miter;stroke:rgb(0%,0%,0%);stroke-opacity:1;stroke-miterlimit:10;" d="M 243.359375 135.398438 L 264.75 145.589844 "/>
<path style="fill:none;stroke-width:1.2;stroke-linecap:butt;stroke-linejoin:miter;stroke:rgb(0%,0%,0%);stroke-opacity:1;stroke-miterlimit:10;" d="M 243.359375 135.398438 L 241.488281 111.777344 "/>
<path style="fill:none;stroke-width:1.2;stroke-linecap:butt;stroke-linejoin:miter;stroke:rgb(0%,0%,0%);stroke-opacity:1;stroke-miterlimit:10;" d="M 241.488281 111.777344 L 261.007812 98.347656 "/>
<path style="fill:none;stroke-width:1.2;stroke-linecap:butt;stroke-linejoin:miter;stroke:rgb(0%,0%,0%);stroke-opacity:1;stroke-miterlimit:10;" d="M 240.28125 105.839844 L 255.898438 95.097656 "/>
<path style="fill:none;stroke-width:1.2;stroke-linecap:butt;stroke-linejoin:miter;stroke:rgb(0%,0%,0%);stroke-opacity:1;stroke-miterlimit:10;" d="M 220.097656 101.585938 L 241.488281 111.777344 "/>
<path style="fill:none;stroke-width:1.2;stroke-linecap:butt;stroke-linejoin:miter;stroke:rgb(0%,0%,0%);stroke-opacity:1;stroke-miterlimit:10;" d="M 261.007812 98.347656 L 259.140625 74.726562 "/>
<path style="fill:none;stroke-width:1.2;stroke-linecap:butt;stroke-linejoin:miter;stroke:rgb(0%,0%,0%);stroke-opacity:1;stroke-miterlimit:10;" d="M 259.140625 74.726562 L 237.746094 64.535156 "/>
<path style="fill:none;stroke-width:1.2;stroke-linecap:butt;stroke-linejoin:miter;stroke:rgb(0%,0%,0%);stroke-opacity:1;stroke-miterlimit:10;" d="M 254.601562 78.742188 L 237.488281 70.589844 "/>
<path style="fill:none;stroke-width:1.2;stroke-linecap:butt;stroke-linejoin:miter;stroke:rgb(0%,0%,0%);stroke-opacity:1;stroke-miterlimit:10;" d="M 237.746094 64.535156 L 218.226562 77.964844 "/>
<path style="fill:none;stroke-width:1.2;stroke-linecap:butt;stroke-linejoin:miter;stroke:rgb(0%,0%,0%);stroke-opacity:1;stroke-miterlimit:10;" d="M 218.226562 77.964844 L 220.097656 101.585938 "/>
<path style="fill:none;stroke-width:1.2;stroke-linecap:butt;stroke-linejoin:miter;stroke:rgb(0%,0%,0%);stroke-opacity:1;stroke-miterlimit:10;" d="M 223.972656 79.886719 L 225.46875 98.785156 "/>
<path style="fill:none;stroke-width:1.2;stroke-linecap:butt;stroke-linejoin:miter;stroke:rgb(0%,0%,0%);stroke-opacity:1;stroke-miterlimit:10;" d="M 81.570312 165.605469 L 70.253906 144.789062 "/>
<path style="fill:none;stroke-width:1.2;stroke-linecap:butt;stroke-linejoin:miter;stroke:rgb(0%,0%,0%);stroke-opacity:1;stroke-miterlimit:10;" d="M 70.253906 144.789062 L 82.625 124.578125 "/>
<path style="fill:none;stroke-width:1.2;stroke-linecap:butt;stroke-linejoin:miter;stroke:rgb(0%,0%,0%);stroke-opacity:1;stroke-miterlimit:10;" d="M 66.734375 139.855469 L 76.632812 123.6875 "/>
<path style="fill:none;stroke-width:1.2;stroke-linecap:butt;stroke-linejoin:miter;stroke:rgb(0%,0%,0%);stroke-opacity:1;stroke-miterlimit:10;" d="M 46.566406 144.179688 L 70.253906 144.789062 "/>
<path style="fill:none;stroke-width:1.2;stroke-linecap:butt;stroke-linejoin:miter;stroke:rgb(0%,0%,0%);stroke-opacity:1;stroke-miterlimit:10;" d="M 82.625 124.578125 L 71.308594 103.761719 "/>
<path style="fill:none;stroke-width:1.2;stroke-linecap:butt;stroke-linejoin:miter;stroke:rgb(0%,0%,0%);stroke-opacity:1;stroke-miterlimit:10;" d="M 71.308594 103.761719 L 47.621094 103.152344 "/>
<path style="fill:none;stroke-width:1.2;stroke-linecap:butt;stroke-linejoin:miter;stroke:rgb(0%,0%,0%);stroke-opacity:1;stroke-miterlimit:10;" d="M 68.796875 109.273438 L 49.847656 108.785156 "/>
<path style="fill:none;stroke-width:1.2;stroke-linecap:butt;stroke-linejoin:miter;stroke:rgb(0%,0%,0%);stroke-opacity:1;stroke-miterlimit:10;" d="M 71.308594 103.761719 L 83.679688 83.550781 "/>
<path style="fill:none;stroke-width:1.2;stroke-linecap:butt;stroke-linejoin:miter;stroke:rgb(0%,0%,0%);stroke-opacity:1;stroke-miterlimit:10;" d="M 47.621094 103.152344 L 35.25 123.359375 "/>
<path style="fill:none;stroke-width:1.2;stroke-linecap:butt;stroke-linejoin:miter;stroke:rgb(0%,0%,0%);stroke-opacity:1;stroke-miterlimit:10;" d="M 35.25 123.359375 L 46.566406 144.179688 "/>
<path style="fill:none;stroke-width:1.2;stroke-linecap:butt;stroke-linejoin:miter;stroke:rgb(0%,0%,0%);stroke-opacity:1;stroke-miterlimit:10;" d="M 41.28125 122.78125 L 50.332031 139.433594 "/>
<path style="fill:none;stroke-width:1.2;stroke-linecap:butt;stroke-linejoin:miter;stroke:rgb(0%,0%,0%);stroke-opacity:1;stroke-miterlimit:10;" d="M 83.679688 83.550781 L 89.863281 73.445312 "/>
<path style="fill:none;stroke-width:1.2;stroke-linecap:butt;stroke-linejoin:miter;stroke:rgb(0%,0%,100%);stroke-opacity:1;stroke-miterlimit:10;" d="M 89.863281 73.445312 L 96.050781 63.34375 "/>
<path style="fill:none;stroke-width:1.2;stroke-linecap:butt;stroke-linejoin:miter;stroke:rgb(0%,0%,0%);stroke-opacity:1;stroke-miterlimit:10;" d="M 89.671875 84.441406 L 94.621094 76.359375 "/>
<path style="fill:none;stroke-width:1.2;stroke-linecap:butt;stroke-linejoin:miter;stroke:rgb(0%,0%,100%);stroke-opacity:1;stroke-miterlimit:10;" d="M 94.621094 76.359375 L 99.566406 68.273438 "/>
<path style="fill:none;stroke-width:1.2;stroke-linecap:butt;stroke-linejoin:miter;stroke:rgb(0%,0%,0%);stroke-opacity:1;stroke-miterlimit:10;" d="M 80.160156 78.621094 L 85.109375 70.535156 "/>
<path style="fill:none;stroke-width:1.2;stroke-linecap:butt;stroke-linejoin:miter;stroke:rgb(0%,0%,100%);stroke-opacity:1;stroke-miterlimit:10;" d="M 85.109375 70.535156 L 90.058594 62.453125 "/>
<path style=" stroke:none;fill-rule:nonzero;fill:rgb(100%,100%,100%);fill-opacity:1;" d="M 93.050781 57.84375 L 100.050781 57.84375 L 100.050781 68.84375 L 93.050781 68.84375 Z M 93.050781 57.84375 "/>
<g style="fill:rgb(0%,0%,100%);fill-opacity:1;">
  <use xlink:href="#glyph0-2" x="93.050781" y="66.506836"/>
</g>
</g>
</svg>

<svg xmlns="http://www.w3.org/2000/svg" xmlns:xlink="http://www.w3.org/1999/xlink" width="300pt" height="300pt" viewBox="0 0 300 300"><defs><symbol overflow="visible"><path d="M.453 1.594v-7.938h4.5v7.938zm.5-.5h3.5v-6.938h-3.5zm0 0"/></symbol><symbol overflow="visible" id="a"><path d="M.89-6.563h3.766v.75h-2.89v1.938h2.61v.734h-2.61V0H.89zm0 0"/></symbol><symbol overflow="visible" id="b"><path d="M.89-6.563H2.08l2.906 5.485v-5.484h.86V0H4.656L1.75-5.484V0H.89zm0 0"/></symbol><symbol overflow="visible" id="c"><path d="M.89-6.563h.876v2.688H5v-2.688h.89V0H5v-3.125H1.766V0H.89zm0 0"/></symbol></defs><g><path fill="#fff" d="M0 0h300v300H0z"/><path d="M216.625 236.656l-9.402-7.207" stroke-width="1.2" stroke="#3cc" stroke-miterlimit="10" fill="none"/><path d="M207.223 229.45l-9.403-7.208" stroke-width="1.2" stroke="#000" stroke-miterlimit="10" fill="none"/><path d="M213.625 231.156h6v11h-6zm0 0" fill="#fff"/><use xlink:href="#a" x="213.625" y="239.819" fill="#3cc"/><path d="M197.82 222.242l-21.886 9.078M193.492 218l-17.508 7.262M200.898 198.75l-3.078 23.492M175.934 231.32l-18.81-14.414M157.125 216.906l3.082-23.496M162.96 215.28l2.47-18.796M160.207 193.41l21.887-9.078M160.207 193.41l-18.805-14.414M182.094 184.332l18.804 14.418M180.582 190.2l15.047 11.53M141.402 178.996l-11.36 3.37" stroke-width="1.2" stroke="#000" stroke-miterlimit="10" fill="none"/><path d="M130.043 182.367l-11.356 3.367" stroke-width="1.2" stroke="#00f" stroke-miterlimit="10" fill="none"/><path d="M142.012 155.31l-.61 23.686M136.38 157.535l-.49 18.95" stroke-width="1.2" stroke="#000" stroke-miterlimit="10" fill="none"/><path d="M118.688 185.734l-6.715-9.757" stroke-width="1.2" stroke="#00f" stroke-miterlimit="10" fill="none"/><path d="M111.973 175.977l-6.715-9.762" stroke-width="1.2" stroke="#000" stroke-miterlimit="10" fill="none"/><path d="M111.688 180.234h14v11h-14zm0 0" fill="#fff"/><g fill="#00f"><use xlink:href="#b" x="111.688" y="188.897"/><use xlink:href="#c" x="118.665" y="188.897"/></g><path d="M105.258 166.215l7.207-9.403" stroke-width="1.2" stroke="#000" stroke-miterlimit="10" fill="none"/><path d="M112.465 156.813l7.207-9.403" stroke-width="1.2" stroke="#00f" stroke-miterlimit="10" fill="none"/><path d="M111.12 167.727l5.77-7.524" stroke-width="1.2" stroke="#000" stroke-miterlimit="10" fill="none"/><path d="M116.89 160.203l5.766-7.52" stroke-width="1.2" stroke="#00f" stroke-miterlimit="10" fill="none"/><path d="M105.258 166.215l-23.688-.61" stroke-width="1.2" stroke="#000" stroke-miterlimit="10" fill="none"/><path d="M119.672 147.41l11.172 3.95" stroke-width="1.2" stroke="#00f" stroke-miterlimit="10" fill="none"/><path d="M130.844 151.36l11.168 3.95" stroke-width="1.2" stroke="#000" stroke-miterlimit="10" fill="none"/><path d="M116.672 141.91h7v11h-7zm0 0" fill="#fff"/><use xlink:href="#b" x="116.672" y="150.573" fill="#00f"/><path d="M142.012 155.31l19.52-13.43M161.53 141.88l10.7 5.093" stroke-width="1.2" stroke="#000" stroke-miterlimit="10" fill="none"/><path d="M172.23 146.973l10.696 5.097" stroke-width="1.2" stroke="#00f" stroke-miterlimit="10" fill="none"/><path d="M166.07 137.863l8.555 4.078" stroke-width="1.2" stroke="#000" stroke-miterlimit="10" fill="none"/><path d="M174.625 141.94l8.56 4.076" stroke-width="1.2" stroke="#00f" stroke-miterlimit="10" fill="none"/><path d="M159.664 118.258l1.867 23.62" stroke-width="1.2" stroke="#000" stroke-miterlimit="10" fill="none"/><path d="M182.926 152.07l9.758-6.715" stroke-width="1.2" stroke="#00f" stroke-miterlimit="10" fill="none"/><path d="M192.684 145.355l9.76-6.718" stroke-width="1.2" stroke="#000" stroke-miterlimit="10" fill="none"/><path d="M179.926 146.57h7v11h-7zm0 0" fill="#fff"/><use xlink:href="#b" x="179.926" y="155.233" fill="#00f"/><path d="M202.445 138.637l-.933-11.81" stroke-width="1.2" stroke="#000" stroke-miterlimit="10" fill="none"/><path d="M201.512 126.828l-.938-11.812" stroke-width="1.2" stroke="#00f" stroke-miterlimit="10" fill="none"/><path d="M196.7 136.715l-.747-9.445" stroke-width="1.2" stroke="#000" stroke-miterlimit="10" fill="none"/><path d="M195.953 127.27l-.75-9.45" stroke-width="1.2" stroke="#00f" stroke-miterlimit="10" fill="none"/><path d="M202.445 138.637l10.696 5.097" stroke-width="1.2" stroke="#000" stroke-miterlimit="10" fill="none"/><path d="M213.14 143.734l10.696 5.094M200.574 115.016l-10.695-5.094" stroke-width="1.2" stroke="#00f" stroke-miterlimit="10" fill="none"/><path d="M189.88 109.922l-10.696-5.094" stroke-width="1.2" stroke="#000" stroke-miterlimit="10" fill="none"/><path d="M197.574 109.516h7v11h-7zm0 0" fill="#fff"/><use xlink:href="#b" x="197.574" y="118.179" fill="#00f"/><path d="M179.184 104.828l-19.52 13.43M180.39 110.762l-15.617 10.746" stroke-width="1.2" stroke="#000" stroke-miterlimit="10" fill="none"/><path d="M243.36 135.398m-2.73 1.247l.59.86m-3.322.386l1.184 1.715m-3.91-.472l1.77 2.578m-4.5-1.33l2.363 3.436m-5.094-2.19l2.958 4.292m-5.688-3.05l3.547 5.155m-6.273-3.91l4.137 6.016m-6.867-4.77l4.727 6.87m-4.78-6.847l4.737 6.89" stroke="#000" stroke-miterlimit="10" fill="none"/><path d="M216.836 143.328h14v11h-14zm0 0" fill="#fff"/><g fill="#00f"><use xlink:href="#b" x="216.836" y="151.991"/><use xlink:href="#c" x="223.813" y="151.991"/></g><path d="M243.36 135.398l21.39 10.192M243.36 135.398l-1.872-23.62M241.488 111.777l19.52-13.43M240.28 105.84L255.9 95.098M220.098 101.586l21.39 10.19M261.008 98.348l-1.867-23.62M259.14 74.727l-21.394-10.192M254.602 78.742l-17.114-8.152M237.746 64.535l-19.52 13.43M218.227 77.965l1.87 23.62M223.973 79.887l1.496 18.898M81.57 165.605L70.254 144.79M70.254 144.79l12.37-20.212M66.734 139.855l9.9-16.167M46.566 144.18l23.688.61M82.625 124.578L71.31 103.762M71.31 103.762l-23.69-.61M68.797 109.273l-18.95-.488M71.31 103.762l12.37-20.21M47.62 103.152L35.25 123.36M35.25 123.36l11.316 20.82M41.28 122.78l9.052 16.654M83.68 83.55l6.183-10.105" stroke-width="1.2" stroke="#000" stroke-miterlimit="10" fill="none"/><path d="M89.863 73.445l6.188-10.1" stroke-width="1.2" stroke="#00f" stroke-miterlimit="10" fill="none"/><path d="M89.672 84.44l4.95-8.08" stroke-width="1.2" stroke="#000" stroke-miterlimit="10" fill="none"/><path d="M94.62 76.36l4.946-8.087" stroke-width="1.2" stroke="#00f" stroke-miterlimit="10" fill="none"/><path d="M80.16 78.62l4.95-8.085" stroke-width="1.2" stroke="#000" stroke-miterlimit="10" fill="none"/><path d="M85.11 70.535l4.95-8.082" stroke-width="1.2" stroke="#00f" stroke-miterlimit="10" fill="none"/><path d="M93.05 57.844h7v11h-7zm0 0" fill="#fff"/><use xlink:href="#b" x="93.051" y="66.507" fill="#00f"/></g></svg>
